X: 122
T: Miss Napier's Reel
B: John Pringle "Collection of Reels Strathspeys & Jigs", 1801 p.12#2
Z: 2011 John Chambers <jc:trillian.mit.edu>
R: reel
M: C|
L: 1/8
K: G
V: 1
B |\
G2GB, G,2dB | cABG FAAc |\
BGEG c=FFA | (B/c/d) (e/f/g) BGG :|\
c |\
BG (B/c/d) gdgd | =fcA=F Accd |
BG (B/c/d) g2df | gdBG Bdef |\
gdec (B/c/d/c/) BG | A=fcf (A/_B/c/B/) AF |\
GGBd gd=fc | A=F (A/B/c/A/) BGG |]
V: 2 clef=bass middle=d
z | g2g2 g2g2 | a2g2 d2d2 | g2g2 =f2f2 | g2d2 G2G :|
z | g2g2 g2g2 | f2f2 f2f2 | g2g2 g2g2 | g2g2 g2g2 |
g2c2 g2g2 | =f2a2 f2^f2 | g2g2 g2=f2 | =f2^f2 g2g |]

%%sep 2 1 500

